app/client/src/assets/icons/blueprintjs/20px/film.svg

<svg xmlns="http://www.w3.org/2000/svg" xml:space="preserve" viewBox="0 0 20 20"><path fill-rule="evenodd" d="M19 2h-5v3H6V2H1c-.55 0-1 .45-1 1v14c0 .55.45 1 1 1h5v-3h8v3h5c.55 0 1-.45 1-1V3c0-.55-.45-1-1-1zM4 17H2v-2h2v2zm0-3H2v-2h2v2zm0-3H2V9h2v2zm0-3H2V6h2v2zm0-3H2V3h2v2zm10 8H6V7h8v6zm4 4h-2v-2h2v2zm0-3h-2v-2h2v2zm0-3h-2V9h2v2zm0-3h-2V6h2v2zm0-3h-2V3h2v2z" clip-rule="evenodd"/></svg>

<?xml version="1.0" encoding="utf-8"?>
<!-- Generator: Adobe Illustrator 18.1.0, SVG Export Plug-In . SVG Version: 6.00 Build 0)  -->
<svg version="1.1" id="Layer_1" xmlns="http://www.w3.org/2000/svg" xmlns:xlink="http://www.w3.org/1999/xlink" x="0px" y="0px"
	 viewBox="0 0 20 20" enable-background="new 0 0 20 20" xml:space="preserve">
<g id="film_1_">
	<g>
		<path fill-rule="evenodd" clip-rule="evenodd" d="M19,2h-5v3H6V2H1C0.45,2,0,2.45,0,3v14c0,0.55,0.45,1,1,1h5v-3h8v3h5
			c0.55,0,1-0.45,1-1V3C20,2.45,19.55,2,19,2z M4,17H2v-2h2V17z M4,14H2v-2h2V14z M4,11H2V9h2V11z M4,8H2V6h2V8z M4,5H2V3h2V5z
			 M14,13H6V7h8V13z M18,17h-2v-2h2V17z M18,14h-2v-2h2V14z M18,11h-2V9h2V11z M18,8h-2V6h2V8z M18,5h-2V3h2V5z"/>
	</g>
</g>
</svg>
